images/hoppscotch-self-host-dark.svg

<svg width="434" height="195" viewBox="0 0 434 195" fill="none" xmlns="http://www.w3.org/2000/svg">
<g clip-path="url(#clip0_91_61)">
<mask id="mask0_91_61" style="mask-type:luminance" maskUnits="userSpaceOnUse" x="0" y="0" width="434" height="195">
<path d="M417.5 0H16.5C7.66344 0 0.5 7.16344 0.5 16V179C0.5 187.837 7.66344 195 16.5 195H417.5C426.337 195 433.5 187.837 433.5 179V16C433.5 7.16344 426.337 0 417.5 0Z" fill="white"/>
</mask>
<g mask="url(#mask0_91_61)">
<path d="M417.5 0H16.5C7.66344 0 0.5 7.16344 0.5 16V179C0.5 187.837 7.66344 195 16.5 195H417.5C426.337 195 433.5 187.837 433.5 179V16C433.5 7.16344 426.337 0 417.5 0Z" fill="#1C483F"/>
</g>
<path d="M200.662 71.091C204.976 69.1448 210.784 68 217.062 68C223.341 68 229.121 69.1449 233.406 71.0935C237.518 72.9633 241 76 241 80V80.0037C240.999 80.6954 240.613 81.74 239.463 83.0312C238.339 84.294 236.636 85.6135 234.429 86.8143C230.02 89.2128 223.849 91 217 91C210.151 91 203.98 89.2128 199.571 86.8143C197.364 85.6135 195.661 84.294 194.537 83.0312C193.385 81.7376 193 80.6915 193 80C193 75.9465 196.531 72.955 200.662 71.091Z" fill="white"/>
<path d="M236.34 90.3278C237.539 89.676 238.646 88.8584 239.641 87.9648C240.148 87.5095 241 87.8535 241 88.5348V98.2499C241 98.9414 240.615 99.7375 239.463 101.031C238.339 102.294 236.636 103.613 234.429 104.814C230.02 107.213 223.849 109 217 109C210.151 109 203.98 107.213 199.571 104.814C197.364 103.613 195.661 102.294 194.537 101.031C193.385 99.7375 193 98.9414 193 98.2499V88.5348C193 87.8535 193.852 87.5095 194.359 87.9648C195.354 88.8583 196.461 89.676 197.66 90.3278C202.661 93.0487 209.49 94.9999 217 94.9999C224.51 94.9999 231.339 93.0487 236.34 90.3278Z" fill="white"/>
<path d="M194.359 105.965C193.852 105.51 193 105.854 193 106.535V116C193 120.028 196.501 123.021 200.616 124.892C204.912 126.844 210.707 128 217 128C223.293 128 229.088 126.844 233.384 124.892C237.5 123.021 241 120.028 241 116V106.535C241 105.854 240.148 105.51 239.641 105.965C238.646 106.858 237.539 107.676 236.34 108.328C231.339 111.049 224.51 113 217 113C209.49 113 202.661 111.049 197.66 108.328C196.461 107.676 195.354 106.858 194.359 105.965Z" fill="white"/>
</g>
<defs>
<clipPath id="clip0_91_61">
<rect width="434" height="195" fill="white"/>
</clipPath>
</defs>
</svg>

<svg xmlns="http://www.w3.org/2000/svg" width="434" height="195" fill="none" viewBox="0 0 434 195"><g clip-path="url(#a)"><mask id="b" width="434" height="195" x="0" y="0" maskUnits="userSpaceOnUse" style="mask-type:luminance"><path fill="#fff" d="M417.5 0h-401C7.663 0 .5 7.163.5 16v163c0 8.837 7.163 16 16 16h401c8.837 0 16-7.163 16-16V16c0-8.837-7.163-16-16-16Z"/></mask><g mask="url(#b)"><path fill="#1C483F" d="M417.5 0h-401C7.663 0 .5 7.163.5 16v163c0 8.837 7.163 16 16 16h401c8.837 0 16-7.163 16-16V16c0-8.837-7.163-16-16-16Z"/></g><path fill="#fff" d="M200.662 71.091c4.314-1.946 10.122-3.091 16.4-3.091 6.279 0 12.059 1.145 16.344 3.094C237.518 72.964 241 76 241 80v.004c-.001.691-.387 1.736-1.537 3.027-1.124 1.263-2.827 2.582-5.034 3.783C230.02 89.213 223.849 91 217 91c-6.849 0-13.02-1.787-17.429-4.186-2.207-1.2-3.91-2.52-5.034-3.783C193.385 81.738 193 80.691 193 80c0-4.053 3.531-7.045 7.662-8.909Z"/><path fill="#fff" d="M236.34 90.328c1.199-.652 2.306-1.47 3.301-2.363.507-.456 1.359-.112 1.359.57v9.715c0 .691-.385 1.487-1.537 2.781-1.124 1.263-2.827 2.582-5.034 3.783C230.02 107.213 223.849 109 217 109c-6.849 0-13.02-1.787-17.429-4.186-2.207-1.201-3.91-2.52-5.034-3.783-1.152-1.294-1.537-2.09-1.537-2.781v-9.715c0-.681.852-1.025 1.359-.57.995.893 2.102 1.711 3.301 2.363C202.661 93.048 209.49 95 217 95s14.339-1.951 19.34-4.672Z"/><path fill="#fff" d="M194.359 105.965c-.507-.455-1.359-.111-1.359.57V116c0 4.028 3.501 7.021 7.616 8.892C204.912 126.844 210.707 128 217 128c6.293 0 12.088-1.156 16.384-3.108C237.5 123.021 241 120.028 241 116v-9.465c0-.681-.852-1.025-1.359-.57-.995.893-2.102 1.711-3.301 2.363C231.339 111.049 224.51 113 217 113s-14.339-1.951-19.34-4.672c-1.199-.652-2.306-1.47-3.301-2.363Z"/></g><defs><clipPath id="a"><path fill="#fff" d="M0 0h434v195H0z"/></clipPath></defs></svg>
